X: 1
T:Blind Billy  "1998.3"
M:9/8
L:1/8
Q:80
C:Traditional
S:Slip Jig
K:HP
|: {g}A2d{gde}dcd{e}A3|
{g}Bcd{g}efg{a}fed|
{g}A2d{gde}dcd{g}B/2{d}G3/2{d}B|  !
{gAGAG}A2f{g}edc{Gdc}d3:| [|
afd{gde}dcdafd|
{g}Bcd{g}efd{g}cB{G}A|  !
afd{gde}dcdafd|
{g}Bcd{g}edc{Gdc}d3|
afd{gde}dcdafd|  !
{g}Bcd{g}efd{g}cB{G}A|
{g}A2d{gde}dcd{g}B/2{d}G3/2{d}B|
{gAGAG}A2f{g}edc{Gdc}d3|]  !
